X: 1567
T: Angus
R: polka
M: 2/4
K: Dmajor
|:Af Bg|Af fe/f/|g/f/e/d/ c/d/e/f/|e/d/c/B/ A/G/F/G/|
Af Bg|Af fe/f/|g/f/e/d/ c/A/B/c/|1 df d2:|2 df dA/G/||
|:FA A/B/A/F/|GB Bc/B/|Ac/B/ A/G/F/E/|D/F/A/B/ A>G|
FA A/B/A/F/|GB Bc/B/|A/B/c/B/ A/G/F/E/|1 DF DA/G/:|2 DF D2||

